X:1
T:The 1913 Massacre
M:3/4
L:1/4
K:C
 z2 G/2G/2| G2 G| G2 G| G E D| C2 c| d3/2 d/2 d| d/2d/2 c d/2d/2| e c A|\
 G2 G| e3/2 e/2e/2 e/2| d c G| A G A| c3-| c2 G/2G/2| G c2-| c2 A|\
 G E E| F D B,| C2 z|
